X:1
T:Maxime LeBlanc
T:Maxine Le Planc [sic]
O:Quebec
F:http://tunearch.org/wiki/Maxime_Leblanc
M:3/4
L:1/8
%Q:140
R:Waltz
K:Dmin
ABA^GA |\
"Dm"f3AfA | "Dm"f3AfA | "A"f2ede2- | "A"eABA^GA |\
"A"e3 AeA | e3Aef | "A"e2d^cd2- | "Dm"dABA^GA ||
"D7"d3 _ed^c | "D7"d3cBA | "Gm"A2G^FG2- | "Gm"GBAGFE |\
"Dm"D^CDEFG | "A7"ABAGFE | "Dm"D2 F2 A2 | "Dm".d2 |]
A2 A2 |\
"A7"ageage | "A7"ageage | "Dm"gfdgfd | "Dm"gfdgfd |\
"A7"feAfeA | "A7"feAfeA | "Dm"edAedA | "Dm"edAedA ||
"D7"dcAdcA "D7"dcA_edc | "Gm"BAG^F G2- | "Gm"GBAGFE "Intro"|\
"Dm"D^CDEFG | "A"ABAGFE | "Dm"D2 F2 A2 | "Dm"d |]
